X: 42486
T: Wha Can Help It
R: jig
M: 6/8
K: Gmajor
B,/A,/|G,>B,D DB,D|EDE G2A|B2G c2B|AA,A, A,2B,/A,/|
G,>B,D DB,D|EDE G2A|B2G c2A|BGG G2:|
|:B/c/|d>ed dBd|gfe dBG|c/d/ec dBG|FAA A2B/c/|
d>ed dBd|gfe dBG|cBc Adc|BGG G2:|

